public/images/projects/callout-icons/warning.svg

<svg width="24" height="24" viewBox="0 0 24 24" fill="none" xmlns="http://www.w3.org/2000/svg">
<path fill-rule="evenodd" clip-rule="evenodd" d="M11.9997 1.8418C13.5494 1.84193 14.9317 2.89875 15.8952 4.63574L21.9557 15.5459C22.8755 17.2051 23.0197 18.8792 22.2536 20.1816C21.4873 21.4841 19.9554 22.1698 18.0602 22.1699H11.9997C11.9602 22.1699 11.9213 22.1661 11.8835 22.1602H5.94013C4.0406 22.1602 2.50729 21.4744 1.74188 20.1709C0.977223 18.8679 1.12531 17.1943 2.04462 15.5361L5.16473 9.91602L8.10516 4.63574C9.06863 2.89883 10.45 1.84199 11.9997 1.8418ZM11.9948 16.75C11.3045 16.75 10.7448 17.3096 10.7448 18C10.7448 18.6904 11.3045 19.25 11.9948 19.25H12.0036C12.6938 19.2498 13.2536 18.6903 13.2536 18C13.2536 17.3097 12.6938 16.7502 12.0036 16.75H11.9948ZM11.9997 5.75C11.3094 5.75011 10.7497 6.30971 10.7497 7V13C10.7497 13.6903 11.3094 14.2499 11.9997 14.25C12.6901 14.25 13.2497 13.6904 13.2497 13V7C13.2497 6.30964 12.6901 5.75 11.9997 5.75Z" fill="black"/>
</svg>

<svg xmlns="http://www.w3.org/2000/svg" width="24" height="24" fill="none" viewBox="0 0 24 24"><path fill="#000" fill-rule="evenodd" d="M12 1.842c1.55 0 2.932 1.057 3.895 2.794l6.06 10.91c.92 1.66 1.065 3.333.299 4.636-.767 1.302-2.299 1.988-4.194 1.988H12a1 1 0 0 1-.117-.01H5.94c-1.9 0-3.433-.686-4.198-1.99-.765-1.302-.617-2.976.303-4.634l3.12-5.62 2.94-5.28C9.07 2.899 10.45 1.842 12 1.842m-.005 14.908a1.25 1.25 0 0 0 0 2.5h.009a1.25 1.25 0 0 0 0-2.5zm.005-11c-.69 0-1.25.56-1.25 1.25v6a1.25 1.25 0 0 0 2.5 0V7c0-.69-.56-1.25-1.25-1.25" clip-rule="evenodd"/></svg>
